X:1
T:Title
%%score 1 { 2 | 3 }
L:1/8
Q:1/4=84
M:6/8
K:C
V:1 treble nm="Grand Piano, Soprano"
V:2 bass nm="Choir Pad, Great Beyond, Coppage"
V:3 bass 
V:1
 [EG]/[EG]<[Ec][Ec]/ [Ec][Fc][FB] | [FA][FA][EG] [EG] [EG]2 | [CE][EG][DF] [DF][DF][CE] | %3
w: By~J.~H.~Rheem * * * * * *|||
 [DF][FA][EG] [EG] [EG]2 | [EG]/[EG]<[Ec][Ec]/ [Ec][Fc][FB] | [FA][FA][EG] [EG] [EG]2 | %6
w: |||
 [EG][FA][FB] [Fc][Fd]<[Fc] | [FA][EG][Ec] [FB] [Ec]2 | [Ec]/[Fd]<[Ge][Gd]/ [Ec][Fd]>[Fc] | %9
w: |||
 [FA][EG][Ec]- [Ec]2- [Ec]/ z/ | [Ec][Ec]>[Ec] [Ec][^Fe]>[Fd] | [^Fc] [GB]2- [GB]2- [GB]/ z/ | %12
w: |||
 G[Ec]>[Ec] [Ec][Ec][FB] | [Gc][Ad][Fc] [FA][FA][EG] | [EG][FA]>[FB] [Fc][Fd]>[FA] | %15
w: |||
 [FB] [Ec]2- [Ec]3- | [Ec]3 z3 |] %17
w: ||
V:2
 C/C<G,G,/ G,A,B, | CCC C C2 | G,G,G, G,G,G, | B,[K:treble]CC C C2 | C/C<[K:bass]G,G,/ G,A,B, | %5
 CCC C C2 | CC[K:bass]B, A,A,<A, | CCG, G, G,2 | G,/G,<[K:treble]CC/ CA,>A, | %9
 CC[K:bass]G,- G,2- G,/ z/ | G,C>[K:treble]C CC>C | D D2- D2- D/ z/ | G,G,>G, G,G,G, | %13
 G,F,A,[K:treble] CCC | CC>[K:bass]B, A,A,>A, | G, G,2- G,3- | G,3 z3 |] %17
V:3
 C,/C,<C,C,/ C,C,C, | C,C,C, C, C,2 | C,G,,G,, G,,G,,G,, | G,,C,C, C, C,2 | C,/C,<C,C,/ C,C,C, | %5
 C,C,C, C, C,2 | C,F,F, F,F,<F, | F, .G,2 G,, C,2 | C,/C,<C,C,/ C,F,>F, | F,C,C,- C,2- C,/ z/ | %10
 C,A,>A, A,D,>D, | D, G,2- G,2- G,/ z/ | z C,>C, C,C,D, | .E,2 F, F,C,C, | C,F,>F, F,F,>F, | %15
 z C,2- C,3- | C,3 z3 |] %17

